X:2
T:Allemande
B:Les p'tites danses d'Erezee
O:Wallonie
M:6/8
L:1/8
Q:C3=108
K:G
D |: G2 F G2 B | A2 ^G A2 c | B2 G B2 d | c2 z c3 |
B2 d c2 B | A2 c B2 A |1 G2 F G2 B | A2 F D3 :|2 G2 B A2 F | G2 z G2 z ||
|: G2 A B2 G | D2 G B2 d | c2 B A2 G | F2 E D3 |
D2 E F2 G | A2 ^G A2 c |1 B2 G B2 e | d2 z d3 :|2 B2 G A2 F | G2 z G2 ||
